dist/svg/machine-learning-o.svg

<svg width="16" height="16" viewBox="0 0 16 16" fill="rgb(34, 34, 34)" xmlns="http://www.w3.org/2000/svg"><title>machine-learning-o</title><path d="M7.99999 0.00292969C3.58299 0.00292969 0.00299072 3.58293 0.00299072 7.99993C0.00299072 12.4169 3.58299 15.9969 7.99999 15.9969C12.417 15.9969 15.997 12.4169 15.997 7.99993C15.997 3.58293 12.417 0.00292969 7.99999 0.00292969ZM7.99999 14.4969C4.41199 14.4969 1.50299 11.5879 1.50299 7.99993C1.50299 4.41193 4.41199 1.50293 7.99999 1.50293C11.588 1.50293 14.497 4.41193 14.497 7.99993C14.493 11.5869 11.586 14.4929 7.99999 14.4969ZM12.003 6.99693C11.356 6.99893 10.806 7.41093 10.598 7.98693L10.595 7.99693H7.54699L6.51799 5.59493C6.66999 5.45593 6.79199 5.28793 6.87699 5.09893L6.88099 5.08893L9.12499 5.08593C9.35899 5.63493 9.89399 6.01393 10.517 6.01393C11.35 6.01393 12.025 5.33893 12.025 4.50593C12.025 3.67293 11.35 2.99793 10.517 2.99793C9.83299 2.99793 9.25599 3.45293 9.07099 4.07693L9.06799 4.08793L6.93999 4.09093C6.75599 3.45793 6.18099 3.00293 5.49999 3.00293C4.67299 3.00293 4.00299 3.67293 4.00299 4.49993C4.00299 5.01993 4.26799 5.47693 4.66999 5.74593L4.67499 5.74893L4.23199 7.52293C4.16399 7.50993 4.08599 7.50193 4.00499 7.49993H4.00299C3.17499 7.49993 2.50299 8.17193 2.50299 8.99993C2.50299 9.82793 3.17499 10.4999 4.00299 10.4999C4.27299 10.4979 4.52599 10.4239 4.74299 10.2969L4.73599 10.3009L7.00299 12.0009C7.00299 12.0059 7.00299 12.0119 7.00299 12.0169C7.00299 12.8449 7.67499 13.5169 8.50299 13.5169C9.33099 13.5169 10.003 12.8449 10.003 12.0169C10.003 11.9169 9.99299 11.8189 9.97499 11.7249L9.97699 11.7349L11.738 9.97393C11.818 9.98893 11.911 9.99793 12.005 9.99793C12.833 9.99793 13.504 9.32693 13.504 8.49893C13.504 7.67093 12.833 6.99993 12.005 6.99993C12.004 6.99993 12.004 6.99993 12.003 6.99993V6.99693ZM10.595 8.99693C10.657 9.16893 10.743 9.31693 10.851 9.44593L10.849 9.44393L9.44999 10.8429C9.22499 10.6569 8.94099 10.5349 8.62899 10.5099H8.62399L7.97599 8.99793L10.595 8.99693ZM5.50299 8.99693H6.88699L7.64599 10.7679C7.54199 10.8429 7.45199 10.9269 7.37299 11.0199L7.37099 11.0219L5.39699 9.54093C5.46299 9.37993 5.50199 9.19293 5.50299 8.99693ZM5.14399 7.99693L5.62799 6.05893L6.45799 7.99693H5.14399ZM10.503 3.99693C10.779 3.99693 11.003 4.22093 11.003 4.49693C11.003 4.77293 10.779 4.99693 10.503 4.99693C10.227 4.99693 10.003 4.77293 10.003 4.49693C10.004 4.22093 10.227 3.99793 10.503 3.99693ZM3.50299 8.99693C3.50299 8.72093 3.72699 8.49693 4.00299 8.49693C4.27899 8.49693 4.50299 8.72093 4.50299 8.99693C4.50299 9.27293 4.27899 9.49693 4.00299 9.49693C3.72699 9.49593 3.50399 9.27293 3.50299 8.99693ZM12.003 8.99693C11.727 8.99693 11.503 8.77293 11.503 8.49693C11.503 8.22093 11.727 7.99693 12.003 7.99693C12.279 7.99693 12.503 8.22093 12.503 8.49693C12.502 8.77293 12.279 8.99593 12.003 8.99693Z" fill="rgb(34, 34, 34)" fill-opacity="1.00"/></svg>

<!-- Generated by Trend Micro Style Portal -->
<svg version="1.1" xmlns="http://www.w3.org/2000/svg" width="16" height="16" viewBox="0 0 16 16">
  <title>machine-learning-o</title>
  <path fill="rgb(34,34,34)" d="M8 0.003c-4.417 0-7.997 3.58-7.997 7.997s3.58 7.997 7.997 7.997c4.417 0 7.997-3.58 7.997-7.997v0c0-4.417-3.58-7.997-7.997-7.997v0zM8 14.497c-3.588 0-6.497-2.909-6.497-6.497s2.909-6.497 6.497-6.497c3.588 0 6.497 2.909 6.497 6.497v0c-0.004 3.587-2.911 6.493-6.497 6.497h-0zM12.003 6.997c-0.647 0.002-1.197 0.414-1.405 0.99l-0.003 0.010h-3.048l-1.029-2.402c0.152-0.139 0.274-0.307 0.359-0.496l0.004-0.010 2.244-0.003c0.234 0.549 0.769 0.928 1.392 0.928 0.833 0 1.508-0.675 1.508-1.508s-0.675-1.508-1.508-1.508c-0.684 0-1.261 0.455-1.446 1.079l-0.003 0.011-2.128 0.003c-0.184-0.633-0.759-1.088-1.44-1.088-0.827 0-1.497 0.67-1.497 1.497 0 0.52 0.265 0.977 0.667 1.246l0.005 0.003-0.443 1.774c-0.068-0.013-0.146-0.021-0.227-0.023l-0.002-0c-0.828 0-1.5 0.672-1.5 1.5s0.672 1.5 1.5 1.5v0c0.27-0.002 0.523-0.076 0.74-0.203l-0.007 0.004 2.267 1.7c-0 0.005-0 0.011-0 0.016 0 0.828 0.672 1.5 1.5 1.5s1.5-0.672 1.5-1.5c0-0.1-0.010-0.198-0.028-0.292l0.002 0.010 1.761-1.761c0.080 0.015 0.173 0.024 0.267 0.024 0.828 0 1.499-0.671 1.499-1.499s-0.671-1.499-1.499-1.499c-0.001 0-0.001 0-0.002 0h0zM10.595 8.997c0.062 0.172 0.148 0.32 0.256 0.449l-0.002-0.002-1.399 1.399c-0.225-0.186-0.509-0.308-0.821-0.333l-0.005-0-0.648-1.512zM5.503 8.997h1.384l0.759 1.771c-0.104 0.075-0.194 0.159-0.273 0.252l-0.002 0.002-1.974-1.481c0.066-0.161 0.105-0.349 0.106-0.545v-0zM5.144 7.997l0.484-1.938 0.83 1.938zM10.503 3.997c0.276 0 0.5 0.224 0.5 0.5s-0.224 0.5-0.5 0.5c-0.276 0-0.5-0.224-0.5-0.5v0c0.001-0.276 0.224-0.499 0.5-0.5h0zM3.503 8.997c0-0.276 0.224-0.5 0.5-0.5s0.5 0.224 0.5 0.5c0 0.276-0.224 0.5-0.5 0.5v0c-0.276-0.001-0.499-0.224-0.5-0.5v-0zM12.003 8.997c-0.276 0-0.5-0.224-0.5-0.5s0.224-0.5 0.5-0.5c0.276 0 0.5 0.224 0.5 0.5v0c-0.001 0.276-0.224 0.499-0.5 0.5h-0z"></path>
</svg>
